icons/dark/c.svg

<svg width="16" height="16" viewBox="0 0 16 16" fill="none" xmlns="http://www.w3.org/2000/svg">
<path d="M10.3 10.6467L10.58 12.2733C10.4067 12.3667 10.1267 12.4533 9.75333 12.5333C9.37333 12.62 8.92666 12.6667 8.41333 12.6667C6.94 12.64 5.83333 12.2 5.09333 11.36C4.33333 10.5133 3.97333 9.44 3.97333 8.14C4 6.6 4.45333 5.42 5.33333 4.59333C6.18666 3.76 7.28 3.33333 8.6 3.33333C9.1 3.33333 9.53333 3.38 9.89333 3.46C10.2533 3.54 10.52 3.62667 10.6933 3.72667L10.2933 5.38667L9.6 5.16C9.33333 5.09333 9.02 5.06 8.66666 5.06C7.9 5.05333 7.26 5.3 6.76 5.79333C6.25333 6.28 6 7.02667 5.97333 8.02C5.98 8.92667 6.22 9.63333 6.69333 10.1533C7.16666 10.6667 7.82666 10.9333 8.68666 10.94L9.57333 10.86C9.86 10.8067 10.1 10.7333 10.3 10.6467Z" fill="#C5C5C5"/>
</svg>

<svg xmlns="http://www.w3.org/2000/svg" width="16" height="16" fill="none" xmlns:v="https://vecta.io/nano"><path d="M10.3 10.647l.28 1.627c-.173.093-.453.18-.827.26-.38.087-.827.133-1.34.133-1.473-.027-2.58-.467-3.32-1.307-.76-.847-1.12-1.92-1.12-3.22.027-1.54.48-2.72 1.36-3.547.853-.833 1.947-1.26 3.267-1.26.5 0 .933.047 1.293.127s.627.167.8.267l-.4 1.66L9.6 5.16c-.267-.067-.58-.1-.933-.1-.767-.007-1.407.24-1.907.733-.507.487-.76 1.233-.787 2.227.007.907.247 1.613.72 2.133.473.513 1.133.78 1.993.787l.887-.08c.287-.053.527-.127.727-.213z" fill="#c5c5c5"/></svg>
